img/intro/7.svg

<svg width="234" height="225" viewBox="0 0 234 225" fill="none" xmlns="http://www.w3.org/2000/svg">
<g filter="url(#filter0_f_273_66884)">
<path d="M100.184 130.449C102.748 127.028 106.214 124.282 108.931 123.944L162.089 119.257C162.6 119.046 163.051 119.384 163.276 119.553C163.276 119.553 163.276 119.553 163.502 119.722L163.727 119.891C163.953 120.06 163.893 120.609 163.893 120.609C164.119 120.778 163.834 121.158 163.774 121.707C163.489 122.087 163.715 122.256 163.43 122.636C163.145 123.016 163.371 123.185 163.086 123.566C162.801 123.946 162.741 124.495 162.741 124.495C162.172 125.255 162.172 125.255 162.172 125.255L120.007 181.519L119.722 181.899C119.437 182.279 119.437 182.279 119.437 182.279C119.152 182.659 119.152 182.659 119.152 182.659L118.867 183.039C118.582 183.419 118.298 183.8 118.298 183.8C116.933 185.151 115.627 185.954 114.321 186.756C114.036 187.136 113.811 186.968 113.811 186.968L113.301 187.179C112.28 187.601 112.054 187.432 112.054 187.432C110.072 187.728 108.66 187.263 108.447 184.729L97.4168 140.249C95.9574 137.968 97.6196 133.871 100.184 130.449Z" fill="#26255F" fill-opacity="0.3"/>
</g>
<path d="M166.011 90.2756L168.011 91.7748L166.011 90.2756C165.728 90.6529 165.728 90.6529 166.011 90.2756Z" fill="#818181"/>
<path fill-rule="evenodd" clip-rule="evenodd" d="M153.311 85.4739L111.461 141.318L116.003 144.723L115.493 145.403C115.208 145.784 115.208 145.784 114.356 146.334L114.071 146.715C113.737 147.161 113.468 147.452 113.246 147.693L113.246 147.693L113.246 147.693L113.246 147.693C113.088 147.864 112.954 148.01 112.836 148.167L112.551 148.548L112.265 148.929C112.172 148.858 111.886 149.239 111.886 149.239C111.793 149.169 111.507 149.549 111.507 149.549L111.222 149.93L110.937 150.311L110.558 150.621C110.272 151.002 110.272 151.002 109.893 151.312L109.893 151.312L109.514 151.622L109.135 151.933C108.85 152.314 108.756 152.243 108.756 152.243C108.459 152.486 108.113 152.127 107.887 151.893C107.824 151.828 107.771 151.772 107.73 151.742L107.341 152.138C107.247 152.068 107.623 152.583 107.623 152.583L114.845 157.995C114.855 158.003 114.865 158.01 114.876 158.016L114.956 158.076C116.446 159.193 120.613 156.425 124.572 151.143L124.572 151.144L163.177 99.4526L163.232 99.4811C166.912 95.5141 169.403 90.3223 162.853 86.0374L160.641 84.5597C160.706 85.6654 160.76 85.0417 160.76 85.0417C160.76 85.0417 160.785 84.9877 160.882 85.0573C160.882 85.0573 160.905 84.831 161.002 84.9007L160.623 85.7664C160.701 85.8227 160.796 85.7996 160.869 85.7818C160.977 85.7556 161.038 85.7409 160.929 86.0088C160.929 86.0088 161.027 86.0784 160.747 86.4583L160.565 86.9079L160.383 87.3575C160.201 87.807 160.201 87.807 159.922 88.1869L159.74 88.6365L159.46 89.0164L159.181 89.3964C159.181 89.3964 159.036 89.5942 158.991 89.7305L153.311 85.4739ZM161.764 98.7202L123.576 149.677L123.577 149.677L161.765 98.7206L161.764 98.7202Z" fill="url(#paint0_linear_273_66884)"/>
<g style="mix-blend-mode:lighten" filter="url(#filter1_f_273_66884)">
<path d="M76.5909 79.6749C79.155 76.2535 83.1115 73.8756 86.6879 74.1812L157.14 82.454C157.773 82.3347 158.469 82.8565 158.817 83.1174C158.817 83.1174 158.817 83.1174 159.165 83.3783L159.513 83.6392C159.861 83.9 159.925 84.5411 159.925 84.5411C160.273 84.8019 159.988 85.1821 160.051 85.8232C159.766 86.2033 160.114 86.4642 159.829 86.8444C159.545 87.2245 159.893 87.4854 159.608 87.8656C159.323 88.2457 159.386 88.8868 159.386 88.8868C158.816 89.6471 158.816 89.6471 158.816 89.6471L116.652 145.911L116.367 146.291C116.082 146.671 116.082 146.671 116.082 146.671C115.797 147.051 115.797 147.051 115.797 147.051L115.512 147.431C115.227 147.811 114.942 148.191 114.942 148.191C113.455 149.451 111.904 150.07 110.353 150.689C110.068 151.069 109.72 150.808 109.72 150.808L109.087 150.927C107.821 151.166 107.473 150.905 107.473 150.905C104.877 150.741 102.852 149.817 101.903 146.731L75.4185 90.6696C72.8552 87.5613 74.0268 83.0963 76.5909 79.6749Z" fill="url(#paint1_linear_273_66884)" fill-opacity="0.6"/>
</g>
<path d="M74.4132 77.3618C76.3548 74.7711 80.2602 75.0537 84.0105 75.4896L159.663 84.3427C160.687 84.525 161.067 84.8011 161.44 85.0806C161.44 85.0806 161.44 85.0806 161.813 85.3601L162.186 85.6396C162.559 85.9191 162.789 86.0725 162.789 86.0725C163.162 86.352 163.145 86.9246 163.133 87.7419C163.128 88.1112 163.074 88.3841 163.033 88.5896C162.929 89.1136 162.847 89.3046 162.743 89.8285C162.638 90.3525 162.232 91.0175 162.232 91.0175C161.663 91.7778 161.663 91.7778 161.663 91.7778L119.498 148.041L119.213 148.421C118.928 148.802 118.928 148.802 118.928 148.802C118.643 149.182 118.643 149.182 118.643 149.182L118.358 149.562C118.073 149.942 117.789 150.322 117.789 150.322C114.973 152.755 115.382 152.259 113.361 152.952C112.555 153.021 112.153 153.014 112.153 153.014L111.349 153.002C110.169 153.037 109.338 152.973 109.338 152.973C106.619 152.716 105.201 151.575 104.103 148.377L76.2809 87.7893C73.82 81.9028 72.4716 79.9526 74.4132 77.3618Z" fill="url(#paint2_linear_273_66884)"/>
<defs>
<filter id="filter0_f_273_66884" x="81.8721" y="104.189" width="97.1064" height="98.3213" filterUnits="userSpaceOnUse" color-interpolation-filters="sRGB">
<feFlood flood-opacity="0" result="BackgroundImageFix"/>
<feBlend mode="normal" in="SourceGraphic" in2="BackgroundImageFix" result="shape"/>
<feGaussianBlur stdDeviation="7.5" result="effect1_foregroundBlur_273_66884"/>
</filter>
<filter id="filter1_f_273_66884" x="0.12513" y="0.29554" width="233.836" height="224.592" filterUnits="userSpaceOnUse" color-interpolation-filters="sRGB">
<feFlood flood-opacity="0" result="BackgroundImageFix"/>
<feBlend mode="normal" in="SourceGraphic" in2="BackgroundImageFix" result="shape"/>
<feGaussianBlur stdDeviation="36.9296" result="effect1_foregroundBlur_273_66884"/>
</filter>
<linearGradient id="paint0_linear_273_66884" x1="118.897" y1="156.536" x2="177.443" y2="67.8318" gradientUnits="userSpaceOnUse">
<stop stop-color="#CF9625"/>
<stop offset="1" stop-color="#FCDEAF"/>
</linearGradient>
<linearGradient id="paint1_linear_273_66884" x1="106.992" y1="46.8043" x2="100.603" y2="152.064" gradientUnits="userSpaceOnUse">
<stop stop-color="#FFA361"/>
<stop offset="1" stop-color="#FD2222"/>
</linearGradient>
<linearGradient id="paint2_linear_273_66884" x1="73.9461" y1="59.3968" x2="66.4852" y2="161.137" gradientUnits="userSpaceOnUse">
<stop stop-color="#F9D072"/>
<stop offset="1" stop-color="#EBAF3C"/>
</linearGradient>
</defs>
</svg>

<svg width="234" height="225" fill="none" xmlns="http://www.w3.org/2000/svg"><g filter="url(#a)"><path d="M100.184 130.449c2.564-3.421 6.03-6.167 8.747-6.505l53.158-4.687c.511-.211.962.127 1.187.296l.226.169.225.169c.226.169.166.718.166.718.226.169-.059.549-.119 1.098-.285.38-.059.549-.344.929s-.059.549-.344.93c-.285.38-.345.929-.345.929l-.569.76-42.165 56.264-.285.38-.285.38-.285.38-.285.38-.569.761c-1.365 1.351-2.671 2.154-3.977 2.956-.285.38-.51.212-.51.212l-.51.211c-1.021.422-1.247.253-1.247.253-1.982.296-3.394-.169-3.607-2.703l-11.03-44.48c-1.46-2.281.203-6.378 2.767-9.8Z" fill="#26255F" fill-opacity=".3"/></g><path d="m166.011 90.276 2 1.499-2-1.5c-.283.378-.283.378 0 0Z" fill="#818181"/><path fill-rule="evenodd" clip-rule="evenodd" d="m153.311 85.474-41.85 55.844 4.542 3.405-.51.68c-.285.381-.285.381-1.137.931l-.285.381c-.334.446-.603.737-.825.978a6.199 6.199 0 0 0-.41.474l-.285.381-.286.381c-.093-.071-.379.31-.379.31-.093-.07-.379.31-.379.31l-.285.381-.285.381-.379.31c-.286.381-.286.381-.665.691l-.379.31-.379.311c-.285.381-.379.31-.379.31-.297.243-.643-.116-.869-.35-.063-.065-.116-.121-.157-.151l-.389.396c-.094-.07.282.445.282.445l7.222 5.412c.01.008.02.015.031.021l.08.06c1.49 1.117 5.657-1.651 9.616-6.933v.001l38.605-51.691.055.028c3.68-3.967 6.171-9.159-.379-13.444l-2.212-1.477c.065 1.105.119.482.119.482s.025-.054.122.015c0 0 .023-.226.12-.156l-.379.865c.078.057.173.034.246.016.108-.026.169-.041.06.227 0 0 .098.07-.182.45l-.182.449-.182.45c-.182.449-.182.449-.461.829l-.182.45-.28.38-.279.38s-.145.197-.19.334l-5.68-4.257Zm8.453 13.246-38.188 50.957h.001l38.188-50.956h-.001Z" fill="url(#b)"/><g style="mix-blend-mode:lighten" filter="url(#c)"><path d="M76.59 79.675c2.565-3.421 6.522-5.8 10.098-5.494l70.452 8.273c.633-.12 1.329.403 1.677.663l.348.261.348.261c.348.261.412.902.412.902.348.26.063.641.126 1.282-.285.38.063.641-.222 1.021-.284.38.064.641-.221 1.022-.285.38-.222 1.02-.222 1.02l-.57.761-42.164 56.264-.285.38-.285.38-.285.38-.285.38-.57.76c-1.487 1.26-3.038 1.879-4.589 2.498-.285.38-.633.119-.633.119l-.633.119c-1.266.239-1.614-.022-1.614-.022-2.596-.164-4.621-1.088-5.57-4.174L75.418 90.67c-2.563-3.109-1.391-7.574 1.173-10.995Z" fill="url(#d)" fill-opacity=".6"/></g><path d="M74.413 77.362c1.942-2.59 5.847-2.308 9.597-1.872l75.653 8.853c1.024.182 1.404.458 1.777.738l.373.28.373.279c.373.28.603.433.603.433.373.279.356.852.344 1.669-.005.37-.059.642-.1.848-.104.524-.186.715-.29 1.239-.105.524-.511 1.189-.511 1.189l-.569.76-42.165 56.263-.285.38-.285.381-.285.38-.285.38-.569.76c-2.816 2.433-2.407 1.937-4.428 2.63-.806.069-1.208.062-1.208.062l-.804-.012a20.924 20.924 0 0 1-2.011-.029c-2.719-.257-4.137-1.398-5.235-4.596L76.281 87.789c-2.461-5.886-3.81-7.836-1.868-10.427Z" fill="url(#e)"/><defs><linearGradient id="b" x1="118.897" y1="156.536" x2="177.443" y2="67.832" gradientUnits="userSpaceOnUse"><stop stop-color="#CF9625"/><stop offset="1" stop-color="#FCDEAF"/></linearGradient><linearGradient id="d" x1="106.992" y1="46.804" x2="100.603" y2="152.064" gradientUnits="userSpaceOnUse"><stop stop-color="#FFA361"/><stop offset="1" stop-color="#FD2222"/></linearGradient><linearGradient id="e" x1="73.946" y1="59.397" x2="66.485" y2="161.137" gradientUnits="userSpaceOnUse"><stop stop-color="#F9D072"/><stop offset="1" stop-color="#EBAF3C"/></linearGradient><filter id="a" x="81.872" y="104.189" width="97.106" height="98.321" filterUnits="userSpaceOnUse" color-interpolation-filters="sRGB"><feFlood flood-opacity="0" result="BackgroundImageFix"/><feBlend in="SourceGraphic" in2="BackgroundImageFix" result="shape"/><feGaussianBlur stdDeviation="7.5" result="effect1_foregroundBlur_273_66884"/></filter><filter id="c" x=".125" y=".296" width="233.836" height="224.592" filterUnits="userSpaceOnUse" color-interpolation-filters="sRGB"><feFlood flood-opacity="0" result="BackgroundImageFix"/><feBlend in="SourceGraphic" in2="BackgroundImageFix" result="shape"/><feGaussianBlur stdDeviation="36.93" result="effect1_foregroundBlur_273_66884"/></filter></defs></svg>
